images/timify/timify-logo-white.svg

<svg height="80" viewBox="0 0 56 80" width="56" xmlns="http://www.w3.org/2000/svg"><path d="m71.2238806 19.1666667h17.5522388v17.5h-17.5522388zm0 19.1666666h17.5522388v17.5h-17.5522388zm19.2238806-38.3333333h17.5522388v17.5h-17.5522388zm-19.2238806 0h17.5522388v17.5h-17.5522388zm-19.2238806 0h17.5522388v17.5h-17.5522388zm0 65.8333333v2.7038943h4.1303005v11.4627724h3.4406324v-11.4627724h4.1305596v-2.7038943zm18.225138 5.1048484c-.113348.9492266-.1998618 1.9537329-.2798686 2.9929018-.0798207 1.0392333-.1598894 2.0853605-.219755 3.1245294-.0733757 1.0461917-.1267961 2.0228004-.1732756 2.9443871h2.5388341c.0365446-1.2379423.0765584-2.4757714.1200411-3.7134713.0526768-1.326456.1251848-2.6732715.2305383-4.034068l.5224296 1.4985448c.1864137.5610443.3730754 1.1291113.5596131 1.683455.1933547.5543436.3666303 1.0944486.5399059 1.6002131.1799686.5127873.3199029.9422683.446451 1.3025531h1.6724563l.4598992-1.3025531.5729992-1.6002131c.1934167-.5543437.3865855-1.1224107.5931404-1.6835194l.5534159-1.5309524c.0931449 1.3715561.1729037 2.7296465.2196931 4.06654.0467274 1.3371512.0999619 2.5771441.1265482 3.7134713h2.5455271c-.0464795-.9215867-.1131001-1.8981954-.1730276-2.9443871-.0733137-1.0391689-.1466893-2.0852961-.226696-3.1245294-.0733757-1.0391689-.1732756-2.0436752-.2732375-2.9929663-.113348-.9559271-.2264481-1.8289347-.3464892-2.6047839h-2.205731c-.1799687.3532621-.3666923.7967885-.5796923 1.3162764-.226758.5196811-.446761 1.087748-.6866572 1.6904132-.2398342.6096234-.4797304 1.2402505-.7061785 1.8705555-.2332031.6373278-.446451 1.2332923-.6530679 1.7873783-.1998619-.554086-.4064167-1.1500505-.6264197-1.7873783-.2264481-.630305-.4532061-1.2608677-.6796542-1.8705555-.226696-.6026652-.4531441-1.1707321-.659761-1.6904777-.2065549-.5194234-.3865235-.9629498-.546351-1.3162119h-2.3258341c-.1264862.7758492-.2331412 1.6488568-.3397961 2.6048484zm13.536056-2.6048484h2.5074627v11.6666667h-2.5074627zm-19.2238806 0h2.5074627v11.6666667h-2.5074627zm31.7611941 0v2.2169083h-5.0128481v2.1546689h4.0141398v2.2169083h-4.0141398v5.0781812h-2.50954v-11.6666667zm5.1058995 6.8913992-2.2877802-3.6920923-1.9822984-3.1993069h2.6914809s.2848717.2269492 1.4807457 2.259319c1.059065 1.80027 1.277458 2.4290962 1.277458 2.4290962s.204083-.6534848 1.229755-2.4180868c1.030015-1.7727142 1.494812-2.2703284 1.494812-2.2703284h2.69142l-4.236197 6.8913992v4.7752675h-2.359396z" fill="#fff" transform="translate(-52)"/></svg>

<?xml version="1.0" encoding="UTF-8"?>
<svg width="56px" height="80px" viewBox="0 0 56 80" version="1.1" xmlns="http://www.w3.org/2000/svg" xmlns:xlink="http://www.w3.org/1999/xlink">
    <!-- Generator: Sketch 50.2 (55047) - http://www.bohemiancoding.com/sketch -->
    <title>Logo</title>
    <desc>Created with Sketch.</desc>
    <defs></defs>
    <g id="Desktop" stroke="none" stroke-width="1" fill="none" fill-rule="evenodd">
        <g id="Homepage" transform="translate(-900.000000, -1296.000000)" fill="#FFFFFF" fill-rule="nonzero">
            <g id="Cases" transform="translate(80.000000, 1072.000000)">
                <g id="Timify" transform="translate(576.000000, 192.000000)">
                    <g id="Group" transform="translate(96.000000, 32.000000)">
                        <g id="Logo" transform="translate(96.000000, 0.000000)">
                            <path d="M71.2238806,19.1666667 L88.7761194,19.1666667 L88.7761194,36.6666667 L71.2238806,36.6666667 L71.2238806,19.1666667 Z M71.2238806,38.3333333 L88.7761194,38.3333333 L88.7761194,55.8333333 L71.2238806,55.8333333 L71.2238806,38.3333333 Z M90.4477612,0 L108,0 L108,17.5 L90.4477612,17.5 L90.4477612,0 Z M71.2238806,0 L88.7761194,0 L88.7761194,17.5 L71.2238806,17.5 L71.2238806,0 Z M52,0 L69.5522388,0 L69.5522388,17.5 L52,17.5 L52,0 Z M52,65.8333333 L52,68.5372276 L56.1303005,68.5372276 L56.1303005,80 L59.5709329,80 L59.5709329,68.5372276 L63.7014925,68.5372276 L63.7014925,65.8333333 L52,65.8333333 Z M70.225138,70.9381817 C70.11179,71.8874083 70.0252762,72.8919146 69.9452694,73.9310835 C69.8654487,74.9703168 69.78538,76.016444 69.7255144,77.0556129 C69.6521387,78.1018046 69.5987183,79.0784133 69.5522388,80 L72.0910729,80 C72.1276175,78.7620577 72.1676313,77.5242286 72.211114,76.2865287 C72.2637908,74.9600727 72.3362988,73.6132572 72.4416523,72.2524607 L72.9640819,73.7510055 C73.1504956,74.3120498 73.3371573,74.8801168 73.523695,75.4344605 C73.7170497,75.9888041 73.8903253,76.5289091 74.0636009,77.0346736 C74.2435695,77.5474609 74.3835038,77.9769419 74.5100519,78.3372267 L76.1825082,78.3372267 L76.6424074,77.0346736 L77.2154066,75.4344605 C77.4088233,74.8801168 77.6019921,74.3120498 77.808547,73.7509411 L78.3619629,72.2199887 C78.4551078,73.5915448 78.5348666,74.9496352 78.581656,76.2865287 C78.6283834,77.6236799 78.6816179,78.8636728 78.7082042,80 L81.2537313,80 C81.2072518,79.0784133 81.1406312,78.1018046 81.0807037,77.0556129 C81.00739,76.016444 80.9340144,74.9703168 80.8540077,73.9310835 C80.780632,72.8919146 80.6807321,71.8874083 80.5807702,70.9381172 C80.4674222,69.9821901 80.3543221,69.1091825 80.234281,68.3333333 L78.02855,68.3333333 C77.8485813,68.6865954 77.6618577,69.1301218 77.4488577,69.6496097 C77.2220997,70.1692908 77.0020967,70.7373577 76.7622005,71.3400229 C76.5223663,71.9496463 76.2824701,72.5802734 76.056022,73.2105784 C75.8228189,73.8479062 75.609571,74.4438707 75.4029541,74.9979567 C75.2030922,74.4438707 74.9965374,73.8479062 74.7765344,73.2105784 C74.5500863,72.5802734 74.3233283,71.9497107 74.0968802,71.3400229 C73.8701842,70.7373577 73.6437361,70.1692908 73.4371192,69.6495452 C73.2305643,69.1301218 73.0505957,68.6865954 72.8907682,68.3333333 L70.5649341,68.3333333 C70.4384479,69.1091825 70.3317929,69.9821901 70.225138,70.9381817 Z M83.761194,68.3333333 L86.2686567,68.3333333 L86.2686567,80 L83.761194,80 L83.761194,68.3333333 Z M64.5373134,68.3333333 L67.0447761,68.3333333 L67.0447761,80 L64.5373134,80 L64.5373134,68.3333333 Z M96.2985075,68.3333333 L96.2985075,70.5502416 L91.2856594,70.5502416 L91.2856594,72.7049105 L95.2997992,72.7049105 L95.2997992,74.9218188 L91.2856594,74.9218188 L91.2856594,80 L88.7761194,80 L88.7761194,68.3333333 L96.2985075,68.3333333 Z M101.404407,75.2247325 L99.1166268,71.5326402 L97.1343284,68.3333333 L99.8258093,68.3333333 C99.8258093,68.3333333 100.110681,68.5602825 101.306555,70.5926523 C102.36562,72.3929223 102.584013,73.0217485 102.584013,73.0217485 C102.584013,73.0217485 102.788096,72.3682637 103.813768,70.6036617 C104.843783,68.8309475 105.30858,68.3333333 105.30858,68.3333333 L108,68.3333333 L103.763803,75.2247325 L103.763803,80 L101.404407,80 L101.404407,75.2247325 Z" id="Timify"></path>
                        </g>
                    </g>
                </g>
            </g>
        </g>
    </g>
</svg>
